modules/hawcons-filled/icons/icon-13-three-fingers-double-tap.svg

<?xml version="1.0" encoding="UTF-8" standalone="no"?>
<svg width="32px" height="32px" viewBox="0 0 32 32" version="1.1" xmlns="http://www.w3.org/2000/svg" xmlns:xlink="http://www.w3.org/1999/xlink" xmlns:sketch="http://www.bohemiancoding.com/sketch/ns">
    <!-- Generator: Sketch 3.0.3 (7891) - http://www.bohemiancoding.com/sketch -->
    <title>icon 13 three fingers double tap</title>
    <desc>Created with Sketch.</desc>
    <defs></defs>
    <g id="Page-1" stroke="none" stroke-width="1" fill="none" fill-rule="evenodd" sketch:type="MSPage">
        <g id="icon-13-three-fingers-double-tap" sketch:type="MSArtboardGroup" fill="#929292">
            <path d="M20.1151466,8.94949144 C20.7337402,8.3182229 21.1151466,7.4536526 21.1151466,6.5 C21.1151466,4.56700328 19.5481434,3 17.6151466,3 C16.183506,3 14.9526263,3.85955899 14.4104349,5.09074953 C14.1549385,5.03138458 13.8887077,5 13.6151466,5 C11.6821499,5 10.1151466,6.56700328 10.1151466,8.5 C10.1151466,9.4536526 10.4965531,10.3182229 11.1151466,10.9494914 L11.1151466,8.50098635 C11.1151466,7.12893087 12.2344348,6 13.6151466,6 C14.180005,6 14.6985353,6.18482109 15.1151466,6.496913 L15.1151466,6.49144137 C15.1151466,5.12905121 16.2344348,4 17.6151466,4 C19.0054846,4 20.1151466,5.1154563 20.1151466,6.49144137 L20.1151466,8.94949144 L20.1151466,8.94949144 L20.1151466,8.94949144 Z M20.1151466,10.2422256 C21.3211324,9.43496423 22.1151466,8.06020815 22.1151466,6.5 C22.1151466,4.0147185 20.1004281,2 17.6151466,2 C16.0519227,2 14.6748685,2.79708675 13.8682463,4.00699789 C13.7844705,4.00235317 13.7000834,4 13.6151466,4 C11.1298651,4 9.11514664,6.0147185 9.11514664,8.5 C9.11514664,10.0602082 9.90916087,11.4349642 11.1151466,12.2422256 L11.1151466,13.4002905 C9.33430864,12.489935 8.11514664,10.6373429 8.11514664,8.5 C8.11514664,5.54532255 10.4450246,3.13481758 13.3678033,3.00546246 C14.3765534,1.78081803 15.904665,1 17.6151466,1 C20.6527129,1 23.1151466,3.46243373 23.1151466,6.5 C23.1151466,8.63734287 21.8959846,10.489935 20.1151466,11.4002905 L20.1151466,10.2422256 L20.1151466,10.2422256 L20.1151466,10.2422256 Z M19.1151466,6.49089813 C19.1151466,5.66749783 18.4493494,5 17.6151466,5 C16.7867195,5 16.1151466,5.67622006 16.1151466,6.49089813 L16.1151466,15.4325233 L16.1151466,18 L15.1151466,18 L15.1151466,15.5 L15.1151466,8.50863659 C15.1151466,7.67543961 14.4493494,7 13.6151466,7 C12.7867195,7 12.1151466,7.66642015 12.1151466,8.50863659 L12.1151466,18.7983451 C10.056747,16.5979243 7.34677642,14.1791206 6.23617935,15.2957153 C5.14900956,16.3887562 7.95050863,19.4007216 11.8625221,25.9830936 C13.6251425,28.9488875 15.8554315,30.9995418 19.6151466,31 C23.7572825,31 27.1151466,27.6421358 27.1151466,23.5 L27.1151466,20.2468012 L27.1151466,15.5063976 C27.1151466,14.6744372 26.4493494,14 25.6151466,14 C24.7867195,14 24.1151466,14.6764628 24.1151466,15.5063976 L24.1151466,17.7497253 L24.1151466,18 L23.1151466,18 L23.1151466,15.6781559 L23.1151466,14.4912653 C23.1151466,13.6676622 22.4493494,13 21.6151466,13 C20.7867195,13 20.1151466,13.6625444 20.1151466,14.4912653 L20.1151466,15.5082011 L20.1151466,17 L19.1151466,17 L19.1151466,15.5082011 L19.1151466,6.49089813 L19.1151466,6.49089813 Z" id="three-fingers-double-tap" sketch:type="MSShapeGroup"></path>
        </g>
    </g>
</svg>

<svg width="32" height="32" xmlns="http://www.w3.org/2000/svg"><path d="M20.115 8.95A3.5 3.5 0 1 0 14.41 5.09a3.5 3.5 0 0 0-3.295 5.859V8.5A2.506 2.506 0 0 1 13.615 6a2.49 2.49 0 0 1 1.5.497V6.49A2.504 2.504 0 0 1 17.615 4a2.49 2.49 0 0 1 2.5 2.491V8.95zm0 1.292a4.5 4.5 0 1 0-6.247-6.235 4.5 4.5 0 0 0-2.753 8.235V13.4a5.5 5.5 0 0 1 2.253-10.395 5.5 5.5 0 1 1 6.747 8.395v-1.158zm-1-3.751a1.501 1.501 0 0 0-3 0V18h-1V8.509a1.5 1.5 0 1 0-3 0v10.29c-2.058-2.201-4.768-4.62-5.879-3.503-1.087 1.093 1.715 4.105 5.627 10.687C13.625 28.95 15.855 31 19.615 31a7.5 7.5 0 0 0 7.5-7.5v-7.993a1.5 1.5 0 1 0-3 0V18h-1V14.491c0-.823-.666-1.491-1.5-1.491-.828 0-1.5.663-1.5 1.491V17h-1V6.491z" fill="#929292" fill-rule="evenodd"/></svg>
